img/icons/telegram.svg

<svg fill="none" height="40" viewBox="0 0 48 40" width="48" xmlns="http://www.w3.org/2000/svg"><path d="m18.834 26.3618-.794 11.168c1.136 0 1.628-.488 2.218-1.074l5.326-5.09 11.036 8.082c2.024 1.128 3.45.534 3.996-1.862l7.244-33.94396.002-.00201c.642-2.991996-1.082-4.161996-3.054-3.427996l-42.58001 16.301966c-2.906 1.128-2.862001 2.748-.494 3.482l10.88601 3.386 25.286-15.82196c1.19-.788 2.272-.352 1.382.436z" fill="#039be5"/></svg>

<svg width="48" height="40" viewBox="0 0 48 40" fill="none" xmlns="http://www.w3.org/2000/svg">
<path d="M18.834 26.3618L18.04 37.5298C19.176 37.5298 19.668 37.0418 20.258 36.4558L25.584 31.3658L36.62 39.4478C38.644 40.5758 40.07 39.9818 40.616 37.5858L47.86 3.64184L47.862 3.63983C48.504 0.647834 46.78 -0.522166 44.808 0.211834L2.22799 16.5138C-0.67801 17.6418 -0.634011 19.2618 1.73399 19.9958L12.62 23.3818L37.906 7.55984C39.096 6.77184 40.178 7.20784 39.288 7.99584L18.834 26.3618Z" fill="#039BE5"/>
</svg>
